img/vote.svg

<svg width="32" height="35" viewBox="0 0 32 35" fill="none" xmlns="http://www.w3.org/2000/svg">
<path d="M27.4894 13.754C27.4894 12.6217 26.4627 11.6995 25.2042 11.6995H20.0868C20.3983 10.8543 20.8868 9.27663 20.8868 7.66663C20.8868 5.93413 20.0313 4.40988 18.7087 3.78425C17.8191 3.36338 16.842 3.41238 16.0303 3.91463C15.893 4.00038 15.8103 4.14125 15.8103 4.29088V6.75313C15.8103 8.37713 14.5256 9.624 13.163 10.9453C12.6598 11.4335 12.1547 11.9296 11.7051 12.4503V23.4998C12.291 23.8261 13.0034 24.0248 13.7791 24.0248H23.4514C24.5706 24.0248 25.4836 23.2058 25.4836 22.1986C25.4836 21.8136 25.3473 21.4479 25.1088 21.146C25.7522 20.782 26.1678 20.1424 26.1678 19.4144C26.1678 19.0504 26.0578 18.6943 25.8544 18.3836C26.4821 18.0109 26.8802 17.3756 26.8802 16.6748C26.8802 16.2355 26.7264 15.8181 26.4481 15.4751C27.0807 15.1076 27.4894 14.4671 27.4894 13.754Z" fill="#FDFF85"/>
<path d="M9.71641 11.7168H5.14695C4.58537 11.7168 4.13086 12.1254 4.13086 12.6303V23.587C4.13086 24.091 4.58537 24.4997 5.14695 24.4997H9.71641C10.277 24.4997 10.7315 24.091 10.7315 23.587V12.6303C10.7315 12.1254 10.277 11.7168 9.71641 11.7168ZM8.29837 23.1872C7.76113 23.1872 7.32511 22.7952 7.32511 22.3122C7.32511 21.8292 7.76113 21.4372 8.29837 21.4372C8.83561 21.4372 9.27163 21.8292 9.27163 22.3122C9.27163 22.7952 8.83561 23.1872 8.29837 23.1872Z" fill="#FDFF85"/>
</svg>

<svg width="32" height="35" fill="none" xmlns="http://www.w3.org/2000/svg"><path d="M27.49 13.754c0-1.132-1.027-2.054-2.286-2.054h-5.117c.311-.846.8-2.423.8-4.033 0-1.733-.856-3.257-2.178-3.883-.89-.42-1.867-.372-2.679.13a.448.448 0 00-.22.377v2.462c0 1.624-1.284 2.871-2.647 4.192-.503.489-1.008.985-1.458 1.505V23.5a4.267 4.267 0 002.074.525h9.672c1.12 0 2.033-.82 2.033-1.826a1.7 1.7 0 00-.375-1.053c.643-.364 1.059-1.004 1.059-1.732 0-.364-.11-.72-.314-1.03.628-.373 1.026-1.008 1.026-1.71 0-.439-.154-.856-.432-1.199.633-.367 1.041-1.008 1.041-1.721zM9.716 11.717H5.147c-.562 0-1.016.408-1.016.913v10.957c0 .504.454.913 1.016.913h4.57c.56 0 1.014-.409 1.014-.913V12.63c0-.505-.454-.913-1.015-.913zm-1.418 11.47c-.537 0-.973-.392-.973-.875s.436-.875.973-.875c.538 0 .974.392.974.875s-.436.875-.974.875z" fill="#FDFF85"/></svg>
